X: 62
T:Queen of May
R:Reel
B:Breandan Breathnach Vol.1
M:C
L:1/8
K:D
|:Bcdf ecdB| AD (3FED FAAc| Bcdf edBd| dBAd BE ~E2| 
Bcdf ecdB| AD (3FED FAAc|Bcdf edBd|dBAd BE E2:|
|:(3Bcd eg fdec| defg afed| (3Bcd eg fdec| dBAd BE ~E2|
(3Bcd eg fdec| defg afeg| (3fga ba fgfe| dBAF EFGA:|
|:B2 eB fBeB|defg afed| B2 eB fBeB| dBAd BEE3/2A/2|
 B2 eB fBeB| defg afeg|(3fga ba fgfe| dBAF E3 z:|
